X:87
T:RVW2/2/87 The Shady Green Tree
C:John Denny, Billericay, Essex, 25 April 1904
L:1/8
Q:1/4=60
M:6/8
I:linebreak $
K:G
"^(Editorial suggestion  " d | (dB)G (EF)G | c2 A/A/ FDD |$ (d>e)d d>ed | AB^c d2 d | (dB)G EFG |$ 
w: As|I _ walked out * one|mid- sum- mer's eve- ning down|by _ the banks of the|sha- dy green tree there|I _ be- held a most|
c>cA FDD/D/ | d>cB efg | B>G A2 G2 |] 
w: beau- ti- ful vir- gin she was|sit- ting down un- der the|sha- dy green tree.|



